X: 31328
T: Paddy McGinty's
R: barndance
M: 4/4
K: Gmajor
|:"3rd part option"g/ f>g|(3efe c>G E>Gc>e|(3ded B>G D4|D>EF>G A>cB>A|G>AB>c d>Gg>f|
(3ege c>G E>Gc>e|(3dgd B>G D4|D>EF>G A>cB>A|G>gf>g G3/2:|

